X: 1
T: Livet i Finnskogarna
T: Life in the Finnish Woods
C: Karl Jularbo (1893-1966)
Z: 1997 by John Chambers <jc:trillian.mit.edu>
R: waltz
M: 3/4
L: 1/8
K: D
|: GFE | "D"D3FAd | f3dAF | "G"G3Bdg | "Em"b6 | "A7"a3gec | A3ceg | "D"f3dAF | D3GFE |
| "D"D3FAd | f3dAF | "G"G3Bdg | "Em"b6 | "A7"a3gec | A3gec | "D"d3 d d2 | "fine"d3 :|
|: FAd | "D"f3ff2 | "D7"g2f2e2 | "G"d4B2 | "D"A4a2 | "A7"a3gec | A3ceg | "D"f3dAF | D3FAd |
| "D"f3ff2 | "D7"g2f2e2 | "G"d4B2 | "D"A4a2 | "A7"a3gec | A3gec | "D"d3 d d2 | d3 :| [K:G]
|: "D7"d^c=c | "G"B3BB2 | B2A2G2 | "D7"F4d2 | c6 | d3dd2 | c2B2A2 | "G"g2f2e2 | "D7"[dd]edcBA |
| "G"B3BB2 | B2A2G2 | "D7"F4d2 | c6 | d3dd2 | c2B2A2 | "G"G3GG2 | G3 :|

%%sep 1 1 500

